webapp/client/src/assets/icons/handwerker_icon.svg

<svg width="41" height="35" viewBox="0 0 41 35" fill="none" xmlns="http://www.w3.org/2000/svg">
<path d="M4.91895 0.399902C2.60558 0.399902 0.700195 2.30528 0.700195 4.61865V15.8687C0.700195 17.688 1.88416 19.2374 3.5127 19.8237V28.5249C3.5127 31.6145 6.04808 34.1499 9.1377 34.1499H10.5439H11.9502H14.7627V31.3374H11.9502V20.0874H21.7939C22.1669 20.0874 22.5246 19.9392 22.7883 19.6755C23.052 19.4118 23.2002 19.0541 23.2002 18.6812V17.2749H27.4189C27.6504 17.2749 27.8784 17.2177 28.0825 17.1085C28.2866 16.9992 28.4606 16.8413 28.589 16.6487L31.4015 12.4299C31.5545 12.2005 31.6366 11.9311 31.6377 11.6554H40.0752V8.8429H31.6377V8.8374C31.6377 8.55978 31.5555 8.28837 31.4015 8.05737L28.589 3.83862C28.4606 3.64601 28.2866 3.48807 28.0825 3.37883C27.8784 3.26959 27.6504 3.21242 27.4189 3.2124H23.2002V1.80615C23.2002 1.4332 23.052 1.07554 22.7883 0.811825C22.5246 0.54811 22.1669 0.39994 21.7939 0.399902H4.91895ZM4.91895 3.2124H20.3877V17.2749H4.91895C4.12731 17.2749 3.5127 16.6603 3.5127 15.8687V4.61865C3.5127 3.82702 4.12731 3.2124 4.91895 3.2124ZM23.2002 6.0249H26.6664L28.8252 9.26587V11.2214L26.6664 14.4624H23.2002V6.0249ZM6.3252 20.0929H9.1377V31.3374C7.56981 31.3374 6.3252 30.0928 6.3252 28.5249V20.0929Z" fill="#0B0C0C"/>
</svg>

<svg width="41" height="35" viewBox="0 0 41 35" fill="none" xmlns="http://www.w3.org/2000/svg">
    <path d="M4.919.4C2.606.4.7 2.305.7 4.619v11.25c0 1.819 1.184 3.368 2.813 3.955v8.7c0 3.09 2.535 5.626 5.625 5.626h5.625v-2.813H11.95v-11.25h9.844a1.406 1.406 0 0 0 1.406-1.406v-1.406h4.219a1.407 1.407 0 0 0 1.17-.626l2.813-4.22c.152-.229.235-.498.236-.774h8.437V8.843h-8.437v-.006c0-.277-.083-.549-.237-.78L28.59 3.84a1.406 1.406 0 0 0-1.17-.627H23.2V1.806A1.406 1.406 0 0 0 21.794.4H4.919Zm0 2.812h15.469v14.063H4.918a1.387 1.387 0 0 1-1.405-1.406V4.619c0-.792.614-1.407 1.406-1.407ZM23.2 6.025h3.466l2.16 3.24v1.956l-2.16 3.241H23.2V6.025ZM6.325 20.093h2.813v11.244a2.794 2.794 0 0 1-2.813-2.812v-8.432Z"
          fill="#0B0C0C"/>
</svg>
